X: 4298
M: C|
L: 1/8
K: G
g>a |\
b>gd>B G>Bd>g | f>ec>A E2_E2 |\
[1,3 D>dc>A F>DE>F | G>AB>c d2 :|\
[2,4 D>dc>A F>DE>F | G2B2G2 |:\
b>gd>B G>Bd>g | f>ed>A E2_E2 |\


